X:2432
T:Caller Herring,(Scotch). JMT.104
M:4/4
L:1/8
Q:180
S:J.Moore,Tyneside,1841.(73)
R:Reel
O:England
A:Northumbria
Z:vmp.Chris Partington
K:G
D|G2GG F2GA|BEAG FDEF|G2GGF2GA|BcAFG3|!
|.g|.f.e.d.c .B.A.G.g|.f.e.d.c .B.A.G.g|.f.e.d.c BBcd|eEAG FDEF|!
G2GGF2GA|BEAG FDEF|G2GGF2GA|BcAFG3|!
|z|g2gg gfgf|edcB ABce|d2dd dcde|fgecd3z|!
c2cc cBcd|eEAG FDEF|G2GG GFGe/c/|BcAFG3|]


